src/layouts/common/icon/3-active.svg

<svg height="30" viewBox="0 0 30 30" width="30" xmlns="http://www.w3.org/2000/svg" xmlns:xlink="http://www.w3.org/1999/xlink"><radialGradient id="a" cx="95.100536%" cy="87.571665%" r="139.490169%"><stop offset="0" stop-color="#a67c38"/><stop offset="1" stop-color="#fff5db"/></radialGradient><g fill="none"><circle cx="15" cy="15" fill="url(#a)" r="15"/><path d="m7.99999807 8.94736842c2.45459833 0 4.44444333-2.00293664 4.44444333-4.47368421 0-2.47074756-1.989845-4.47368421-4.44444333-4.47368421-2.45459829 0-4.44444337 2.00293665-4.44444337 4.47368421 0 2.47074757 1.98984508 4.47368421 4.44444337 4.47368421zm-4.50024754 1.09445488h9.00049657c1.932696 0 3.4997548 1.5578008 3.4997548 3.4790884v.4972979c0 1.6476739-1.3440555 2.9817904-2.999504 2.9817904h-10.00099819c-1.65745752 0-2.99949778-1.3361137-2.99949778-2.9817904v-.4972979c-.00200711-1.9212876 1.56504363-3.4790884 3.4997486-3.4790884z" fill="#050505" transform="translate(7 6)"/></g></svg>

<?xml version="1.0" encoding="UTF-8"?>
<svg width="30px" height="30px" viewBox="0 0 30 30" version="1.1" xmlns="http://www.w3.org/2000/svg" xmlns:xlink="http://www.w3.org/1999/xlink">
    <!-- Generator: Sketch 61.2 (89653) - https://sketch.com -->
    <title>Group</title>
    <desc>Created with Sketch.</desc>
    <defs>
        <radialGradient cx="95.1005363%" cy="87.5716654%" fx="95.1005363%" fy="87.5716654%" r="139.490169%" id="radialGradient-1">
            <stop stop-color="#A67C38" offset="0%"></stop>
            <stop stop-color="#FFF5DB" offset="100%"></stop>
        </radialGradient>
    </defs>
    <g id="5.12" stroke="none" stroke-width="1" fill="none" fill-rule="evenodd">
        <g id="我的" transform="translate(-298.000000, -738.000000)" fill-rule="nonzero">
            <g id="编组-2" transform="translate(0.000000, 735.000000)">
                <g id="Group" transform="translate(298.000000, 3.000000)">
                    <circle id="椭圆形" fill="url(#radialGradient-1)" cx="15" cy="15" r="15"></circle>
                    <g id="编组" transform="translate(7.000000, 6.000000)" fill="#050505">
                        <path d="M7.99999807,8.94736842 C10.4545964,8.94736842 12.4444414,6.94443178 12.4444414,4.47368421 C12.4444414,2.00293665 10.4545964,0 7.99999807,0 C5.54539978,0 3.5555547,2.00293665 3.5555547,4.47368421 C3.5555547,6.94443178 5.54539978,8.94736842 7.99999807,8.94736842 Z M3.49975053,10.0418233 L12.5002471,10.0418233 C14.4329431,10.0418233 16.0000019,11.5996241 16.0000019,13.5209117 L16.0000019,14.0182096 C16.0000019,15.6658835 14.6559464,17 13.0004979,17 L2.99949971,17 C1.34204219,17 1.92590888e-06,15.6638863 1.92590888e-06,14.0182096 L1.92590888e-06,13.5209117 C-0.0020051839,11.5996241 1.56504556,10.0418233 3.49975053,10.0418233 L3.49975053,10.0418233 Z" id="形状"></path>
                    </g>
                </g>
            </g>
        </g>
    </g>
</svg>
